X: 45
T:Fishers's Hornpipe
% Nottingham Music Database
S:via PR
M:4/4
L:1/4
K:D
B/2c/2|:"D"d/2A/2F/2D/2 "G"G/2B/2A/2G/2|"D"F/2E/2D/2F/2 "G"G/2B/2A/2G/2|\
"D"F/2D/2F/2D/2 "G"G/2B/2A/2G/2|"D"F/2G/2A/2F/2 "A"EB/2c/2|
"D"d/2A/2F/2D/2 "G"G/2B/2A/2G/2|"D"F/2E/2D/2F/2 "G"G/2B/2A/2G/2|\
"D"F/2G/2A/2d/2 "A"c/2d/2e/2c/2| [1"D"d/2B/2A/2F/2 DB/2c/2:|
 [2"D"d/2B/2A/2F/2 Dc/2d/2|:"A"e/2c/2A/2c/2 e/2g/2f/2e/2|\
"D"f/2d/2A/2d/2 f/2a/2g/2f/2|"A"e/2c/2A/2c/2 e/2g/2f/2e/2|
"D"dB AA/2_B/2|"G"B/2G/2D/2G/2 B/2d/2c/2B/2|"D"A/2F/2D/2F/2 A_B|\
"G"B/2G/2B/2d/2 "A"c/2d/2e/2c/2| [1"D"d/2B/2A/2F/2 Dc/2d/2:|[2"D"d/2B/2A/2F/2 D||


